client/src/assets/svgs/icon-stats.svg

<svg xmlns:xlink="http://www.w3.org/1999/xlink" width="21" xmlns="http://www.w3.org/2000/svg" height="20" id="screenshot-abd8984f-07e4-11ed-a481-67c65433ae8b" viewBox="2763.6534375000037 1508.5524755859415 21 20" style="-webkit-print-color-adjust: exact;" fill="none" version="1.1"><g id="shape-abd8984f-07e4-11ed-a481-67c65433ae8b"><g id="fills-abd8984f-07e4-11ed-a481-67c65433ae8b"><path rx="0" ry="0" d="M2766.5370331933564,1508.5524755859415L2766.5370331933564,1508.5524755859415ZL2766.469413992726,1524.0093733305876L2766.492827061972,1524.060438605139L2768.9191644478315,1524.060438605139L2768.943276608944,1523.995487523663L2768.9315695187315,1508.6423875831429L2768.8838690391867,1508.5524755859415ZM2772.943548697217,1511.1652015487034L2772.943548697217,1511.1652015487034ZL2772.962949925227,1524.060438605139L2775.3835221842755,1524.060438605139L2775.3952213374787,1511.1947330428552L2775.382030026337,1511.1652015487034ZM2779.3845722582982,1515.2669730950001L2779.4139264972446,1524.060438605139L2781.834409861777,1524.060438605139L2781.858171683255,1524.0093733305876L2781.858171683255,1515.2669730950001ZM2763.665930354239,1526.6433711677873L2763.665930354239,1526.6433711677873ZL2763.6534375000037,1528.5441808325008L2763.67658880665,1528.5519102523413L2763.67658880665,1528.5519964896703L2784.6450560171133,1528.5524755859415L2784.6534375000037,1528.5497447371959L2784.6534375000037,1526.6416384362738L2784.5255373410027,1526.601031833321Z" style="fill: rgb(255, 255, 255); fill-opacity: 1;"/></g></g></svg>

<svg xmlns="http://www.w3.org/2000/svg" fill="none" style="-webkit-print-color-adjust:exact" viewBox="2763.7 1508.6 21 20">
  <path fill="#fff" d="M2766.5 1508.6Zv15.4h2.4v-15.4Zm6.4 2.6Zv12.9h2.5v-13Zm6.5 4v8.9h2.4v-8.8Zm-15.7 11.4Zv2h21v-2h-.2Z"/>
</svg>
